src/rounded/icons/fi-rr-package.svg

<svg id="Layer_1" height="512" viewBox="0 0 24 24" width="512" xmlns="http://www.w3.org/2000/svg" data-name="Layer 1"><path d="m21 8h-4a3 3 0 0 0 -3 3v5h-2v-4a6 6 0 0 0 -3.107-5.253 4 4 0 1 0 -5.786 0 6 6 0 0 0 -3.107 5.253v11a1 1 0 0 0 2 0v-5h20v5a1 1 0 0 0 2 0v-12a3 3 0 0 0 -3-3zm-17-4a2 2 0 1 1 2 2 2 2 0 0 1 -2-2zm2 4a4 4 0 0 1 4 4v4h-8v-4a4 4 0 0 1 4-4zm10 8v-5a1 1 0 0 1 1-1h1v1a1 1 0 0 0 2 0v-1h1a1 1 0 0 1 1 1v5z"/></svg>

<svg id="Layer_1" data-name="Layer 1" xmlns="http://www.w3.org/2000/svg" viewBox="0 0 24 24"><path d="M21,8H17a3,3,0,0,0-3,3v5H12V12A6,6,0,0,0,8.893,6.747a4,4,0,1,0-5.786,0A6,6,0,0,0,0,12V23a1,1,0,0,0,2,0V18H22v5a1,1,0,0,0,2,0V11A3,3,0,0,0,21,8ZM4,4A2,2,0,1,1,6,6,2,2,0,0,1,4,4ZM6,8a4,4,0,0,1,4,4v4H2V12A4,4,0,0,1,6,8Zm10,8V11a1,1,0,0,1,1-1h1v1a1,1,0,0,0,2,0V10h1a1,1,0,0,1,1,1v5Z"/></svg>
